flaticon/productivity/target.svg

<svg xmlns="http://www.w3.org/2000/svg" width="32" height="32" viewBox="0 0 24 24">
    <path d="M 24 11.464844 L 21.035156 11.464844 C 20.769531 6.898438 17.101562 3.230469 12.535156 2.964844 L 12.535156 0 L 11.464844 0 L 11.464844 2.964844 C 6.898438 3.230469 3.230469 6.898438 2.964844 11.464844 L 0 11.464844 L 0 12.535156 L 2.964844 12.535156 C 3.230469 17.101562 6.898438 20.769531 11.464844 21.035156 L 11.464844 24 L 12.535156 24 L 12.535156 21.035156 C 17.101562 20.769531 20.769531 17.101562 21.035156 12.535156 L 24 12.535156 Z M 12.535156 19.96875 L 12.535156 17.039062 L 11.464844 17.039062 L 11.464844 19.96875 C 7.488281 19.703125 4.296875 16.511719 4.03125 12.535156 L 6.960938 12.535156 L 6.960938 11.464844 L 4.03125 11.464844 C 4.296875 7.488281 7.488281 4.296875 11.464844 4.03125 L 11.464844 6.960938 L 12.535156 6.960938 L 12.535156 4.03125 C 16.511719 4.296875 19.703125 7.488281 19.96875 11.464844 L 17.039062 11.464844 L 17.039062 12.535156 L 19.96875 12.535156 C 19.703125 16.511719 16.511719 19.703125 12.535156 19.96875 Z M 12.535156 19.96875"/>
    <path d="M 12 9.773438 C 10.773438 9.773438 9.773438 10.773438 9.773438 12 C 9.773438 13.226562 10.773438 14.226562 12 14.226562 C 13.226562 14.226562 14.226562 13.226562 14.226562 12 C 14.226562 10.773438 13.226562 9.773438 12 9.773438 Z M 12 13.160156 C 11.359375 13.160156 10.839844 12.640625 10.839844 12 C 10.839844 11.359375 11.359375 10.839844 12 10.839844 C 12.640625 10.839844 13.160156 11.359375 13.160156 12 C 13.160156 12.640625 12.640625 13.160156 12 13.160156 Z M 12 13.160156"/>
</svg>

<svg xmlns="http://www.w3.org/2000/svg" width="32" height="32" viewBox="0 0 24 24">
    <path d="M24 11.465h-2.965c-.265-4.567-3.933-8.235-8.5-8.5V0h-1.07v2.965c-4.567.265-8.235 3.933-8.5 8.5H0v1.07h2.965c.265 4.567 3.933 8.235 8.5 8.5V24h1.07v-2.965c4.567-.265 8.235-3.933 8.5-8.5H24zm-11.465 8.504v-2.93h-1.07v2.93a8.004 8.004 0 0 1-7.434-7.434h2.93v-1.07H4.03a8.004 8.004 0 0 1 7.434-7.434v2.93h1.07V4.03a8.004 8.004 0 0 1 7.434 7.434h-2.93v1.07h2.93a8.004 8.004 0 0 1-7.434 7.434zm0 0"/>
    <path d="M12 9.773A2.23 2.23 0 0 0 9.773 12c0 1.227 1 2.227 2.227 2.227 1.227 0 2.227-1 2.227-2.227 0-1.227-1-2.227-2.227-2.227zm0 3.387a1.16 1.16 0 1 1 0-2.32 1.16 1.16 0 0 1 0 2.32zm0 0"/>
</svg>
